X: 20192
T: Jockey Lay Up In The Hay Loft
R: slip jig
M: 9/8
K: Gmajor
|:GBG GBG F2D|GBG G2B cAF|GBG GBG F2D|=FGA =f2d cAF:|
|:B/c/dB A/B/cA B2G|B/c/dB cAd cAF|B/c/dB A/B/cA B2G|=FGA =f2d cAF:|
|:G2g gdB gdB|G2g gdB =fcA|G2g gdB gdB|=F2=f fcA fcA:|
|:gag gdg f2d|gag gdg agf|gag gdg f2d|=FGA =f2d cAF:|
|:G2B2G2 G2B2G2 F4D2|G2B2G2 G2B2G2 dcBAGF|
|:B2d2B2 A2c2A2 B4G2|B2d2B2 A2c2A2 c2A2F2|
|:G2B2G2 G2D2C2 B,4G,2|G2B2G2 G2A2B2 c2A2F2|
|:G2BcdB d2BcdB G2BcdB|G2BcdB d2BcdB c2B2A2|
|:G4g2- g2d2B2 g2d2B2|G4g2- g2d2B2 f2c2A2|
|:G4D2- D2B,2D2 F4D2|G4D2- D2B,2D2 dcBAF2|

